X: 1
T: Gloria's Wee Jig
P: Gloria's Wee Jig
R: jig
C: Bob McMurtry
C: a.p.b Benton GrosJean, Andy Imbrie, Bob McMurtry "The Devil's Quandary" 
C: trans. T. Traub 5-1-2016
L: 1/8
M: 6/8
K: G
|: d|"G"B2 G D2 B|"Am"c2 A F2 E|"D"D2 d cBA |"G"B3 d3|"G"B2 G D2 B|"Am"c2 A F2 E|"D"Ded cBA|"G"G3-G2 A||
"G"BAB GAB|"Am"c2 c c2 B|"Am"Ace "D"gfe|"G"d3-"D"d2 c|"G"BAB GAB|"C"ceg gfe|"G"dBg "D"BcA|"G"G3-G2||
|: B| "D"c2 a "G"B2 g|"D"fef "G"gdB|"D"c2 a "G"B2 g|"D"fef "G"g3|"C"c2 a "G"B2 g|"D"fef "Em"gdB|"C"EcA "D"dcA|"G"G3-G2 :|

